polaris-icons/icons/new-icons/HideMinor.svg

<svg width="20" height="20" viewBox="0 0 20 20" fill="none" xmlns="http://www.w3.org/2000/svg">
<path d="M11.9768 4.75129C11.3812 4.59149 10.7237 4.49989 10 4.49989C7.5556 4.49989 5.80448 5.54475 4.67461 6.7331C4.11382 7.32291 3.70392 7.94942 3.43153 8.50627C3.1714 9.03805 3 9.58173 3 9.99989C3 10.418 3.1714 10.9617 3.43153 11.4935C3.6042 11.8465 3.83213 12.2275 4.11872 12.6094L5.19291 11.5352C5.02374 11.2916 4.88622 11.0537 4.77896 10.8344C4.55757 10.3818 4.5 10.0817 4.5 9.99989C4.5 9.91805 4.55757 9.61797 4.77896 9.16538C4.98809 8.73786 5.31225 8.23936 5.76168 7.76667C6.65224 6.83003 8.02612 5.99989 10 5.99989C10.2406 5.99989 10.4713 6.01221 10.6925 6.03556L11.9768 4.75129Z" fill="#4A4A4A"/>
<path fill-rule="evenodd" clip-rule="evenodd" d="M4.24913 14.6002C3.96394 14.8936 3.96651 15.3627 4.25681 15.653C4.54971 15.9459 5.02458 15.9459 5.31747 15.653L6.37878 14.5917C7.35379 15.1352 8.55591 15.4999 10 15.4999C12.4504 15.4999 14.1417 14.4497 15.2397 13.2581C16.3176 12.0881 16.8276 10.7819 16.9776 10.1818C17.0075 10.0624 17.0075 9.93742 16.9776 9.81799C16.8276 9.21784 16.3176 7.91162 15.2397 6.74168C15.0822 6.57077 14.9125 6.40277 14.7301 6.24036L15.6531 5.31744C15.946 5.02455 15.946 4.54967 15.6531 4.25678C15.3627 3.96643 14.8935 3.96391 14.6001 4.24922C14.5975 4.25183 14.595 4.25443 14.5924 4.25701L4.25681 14.5926C4.25426 14.5951 4.2517 14.5977 4.24913 14.6002ZM10 13.9999C9.02209 13.9999 8.19145 13.7961 7.49389 13.4766L8.60223 12.3683C9.01165 12.6104 9.4896 12.7497 10 12.7497C11.5188 12.7497 12.75 11.5185 12.75 9.99969C12.75 9.48945 12.6107 9.0114 12.3686 8.60191L13.6674 7.3031C13.8369 7.44952 13.993 7.6023 14.1365 7.75809C14.9054 8.59255 15.3124 9.51382 15.4695 9.99989C15.3124 10.486 14.9054 11.4072 14.1365 12.2417C13.2766 13.175 11.9679 13.9999 10 13.9999ZM10 11.2497C9.91315 11.2497 9.82836 11.2409 9.74648 11.224L11.2244 9.74613C11.2412 9.82799 11.25 9.91279 11.25 9.99969C11.25 10.69 10.6904 11.2497 10 11.2497Z" fill="#4A4A4A"/>
</svg>

<svg viewBox="0 0 20 20" xmlns="http://www.w3.org/2000/svg"><path d="M11.977 4.751a7.598 7.598 0 0 0-1.977-.251c-2.444 0-4.196 1.045-5.325 2.233-.561.59-.971 1.216-1.243 1.773-.26.532-.432 1.076-.432 1.494 0 .418.171.962.432 1.493.172.354.4.734.687 1.116l1.074-1.074a5.388 5.388 0 0 1-.414-.7c-.221-.453-.279-.753-.279-.835 0-.082.058-.382.279-.835.21-.427.533-.926.983-1.398.89-.937 2.264-1.767 4.238-1.767.24 0 .471.012.693.036l1.284-1.285Z" fill="#5C5F62"/><path fill-rule="evenodd" d="M4.25 14.6a.75.75 0 0 0 1.067 1.053l1.062-1.061c.975.543 2.177.908 3.621.908 2.45 0 4.142-1.05 5.24-2.242 1.078-1.17 1.588-2.476 1.738-3.076a.749.749 0 0 0 0-.364c-.15-.6-.66-1.906-1.738-3.076a7.245 7.245 0 0 0-.51-.502l.923-.923a.75.75 0 0 0-1.053-1.068l-.008.008-10.335 10.336-.008.007Zm5.75-.6c-.978 0-1.809-.204-2.506-.523l1.108-1.109a2.75 2.75 0 0 0 3.766-3.766l1.3-1.299c.169.147.325.3.469.455a6.387 6.387 0 0 1 1.332 2.242 6.387 6.387 0 0 1-1.332 2.242c-.86.933-2.17 1.758-4.137 1.758Zm0-2.75c-.087 0-.172-.01-.254-.026l1.478-1.478a1.25 1.25 0 0 1-1.224 1.504Z" fill="#5C5F62"/></svg>
